svgs/sharp-regular/tablet.svg

<svg xmlns="http://www.w3.org/2000/svg" viewBox="0 0 448 512"><!--! Font Awesome Pro 6.6.0 by @fontawesome - https://fontawesome.com License - https://fontawesome.com/license (Commercial License) Copyright 2024 Fonticons, Inc. --><path d="M48 48l0 416 352 0 0-416L48 48zM0 0L48 0 400 0l48 0 0 48 0 416 0 48-48 0L48 512 0 512l0-48L0 48 0 0zM192 400l64 0 16 0 0 32-16 0-64 0-16 0 0-32 16 0z"/></svg>

<svg xmlns="http://www.w3.org/2000/svg" viewBox="0 0 448 512"><!--! Font Awesome Pro 6.5.2 by @fontawesome - https://fontawesome.com License - https://fontawesome.com/license (Commercial License) Copyright 2024 Fonticons, Inc. --><path d="M48 48V464H400V48H48zM0 0H48 400h48V48 464v48H400 48 0V464 48 0zM192 400h64 16v32H256 192 176V400h16z"/></svg>
